X: 6
T:-Maid In A Box
M:4/4
L:1/8
Q:180
R:March
K:A
E2|"A"A2 cA EAce|"D"fefg "A"ae"E"cB|"A"Acea fecA|"Bm"BFBA "E"GEFG|!
"A"AzcA EAce|"D"fefg "A"ae"E"cB|"A"Acea fecA|"E"BAGB "A"A2::!
(3Ace|"A"az(3Ace "E"gz(3Ace|"D"fz(3Acf "A"ez(3Ace|
"A"az(3Ace "E"gzeg|"D"fbba "E"gefg|!
"A"a2 fa gbeg|agaf ecAc|defd ceaf|ecdB A2:|
